layouts/icon-pack/weapon_mace.svg

<?xml version="1.0" encoding="UTF-8"?>
<svg width="1200pt" height="1200pt" version="1.1" viewBox="0 0 1200 1200" xmlns="http://www.w3.org/2000/svg">
 <g fill="#fff">
  <path d="m571.43 378.33-123.14 18.914c-3.8164 0.5625-6.6719 3.793-6.7617 7.6484-0.09375 3.8555 2.6016 7.2148 6.3867 7.9609l123.23 24.82c3.2148 0.63672 6.543-0.27344 8.9883-2.457 2.4453-2.1836 3.7266-5.3867 3.457-8.6523-1.168-12.328-1.2227-24.738-0.16406-37.078 0.25-3.1836-0.96484-6.3047-3.3047-8.4805-2.3359-2.1719-5.5391-3.1562-8.6953-2.6758z"/>
  <path d="m797.2 746.18 18.914-123.14c0.50391-3.1562-0.46484-6.3711-2.6328-8.7188-2.1641-2.3516-5.2891-3.5781-8.4766-3.3281-12.332 1.0508-24.734 0.98828-37.055-0.1875-3.2891-0.28906-6.5234 0.99219-8.7266 3.457-2.1992 2.4648-3.1094 5.8203-2.4531 9.0586l24.82 123.21c0.74219 3.7852 4.0977 6.4844 7.9531 6.3984 3.8555-0.085938 7.0859-2.9375 7.6562-6.75z"/>
  <path d="m797.41 202.76c3.2383 0.19141 6.3867-1.1289 8.5195-3.5703 2.1367-2.4453 3.0234-5.7383 2.4023-8.9219l-23.109-114.84c-0.74219-3.7852-4.0977-6.4844-7.9531-6.3984-3.8555 0.085937-7.0859 2.9375-7.6562 6.75l-17.812 115.97c-0.56641 3.2305 0.42187 6.543 2.668 8.9336s5.4844 3.5898 8.7461 3.2305c11.348-1.3203 22.785-1.7031 34.195-1.1484z"/>
  <path d="m1118.9 409.22-114.73-23.109c-3.1836-0.62109-6.4766 0.26562-8.9141 2.4023-2.4414 2.1367-3.7539 5.2812-3.5547 8.5195 0.56641 11.41 0.18359 22.848-1.1484 34.195-0.34766 3.2305 0.83203 6.4414 3.1875 8.6797 2.3594 2.2383 5.625 3.25 8.8359 2.7344l115.97-17.812c3.8125-0.57031 6.6641-3.8008 6.75-7.6562 0.085937-3.8555-2.6133-7.2109-6.3984-7.9531z"/>
  <path d="m287.53 821.16-192.75 192.75c-17.305 17.305-24.062 42.523-17.727 66.16 6.332 23.637 24.797 42.102 48.434 48.434 23.637 6.3359 48.855-0.42188 66.16-17.727l192.73-192.75c5.5273-5.5078 8.8164-12.871 9.2266-20.664 0.41016-7.793-2.082-15.465-7-21.523l254.09-258.21c10.184-10.199 14.148-25.055 10.41-38.973-3.7422-13.918-14.625-24.781-28.547-28.5-13.926-3.7188-28.773 0.27344-38.957 10.473l-253.99 258.3c-6.0508-4.8828-13.695-7.3594-21.461-6.9453-7.7656 0.41016-15.105 3.6758-20.609 9.1719z"/>
  <path d="m530.3 154.92c-3.2852-2.043-7.5664-1.418-10.125 1.4844-2.5625 2.9023-2.6484 7.2305-0.21094 10.234l129.49 162.87c-22.816 40.543-26.633 89.074-10.441 132.69 16.191 43.613 50.758 77.891 94.5 93.723 43.746 15.832 92.242 11.613 132.6-11.535l162.59 129.26c3.0039 2.4375 7.332 2.3516 10.234-0.21094 2.9023-2.5586 3.5273-6.8398 1.4844-10.125l-112.29-183.98c23.609-46.141 23.172-100.91-1.1719-146.67l125.39-179.6c2.2188-3.1484 1.8516-7.4414-0.875-10.164-2.7227-2.7266-7.0156-3.0938-10.164-0.875l-179.58 125.46c-46.203-24.578-101.56-24.781-147.94-0.53906z"/>
 </g>
</svg>

<?xml version="1.0" encoding="UTF-8" standalone="no"?>
<!DOCTYPE svg PUBLIC "-//W3C//DTD SVG 1.1//EN" "http://www.w3.org/Graphics/SVG/1.1/DTD/svg11.dtd">
<svg width="100%" height="100%" viewBox="0 0 507 512" version="1.1" xmlns="http://www.w3.org/2000/svg" xmlns:xlink="http://www.w3.org/1999/xlink" xml:space="preserve" xmlns:serif="http://www.serif.com/" style="fill-rule:evenodd;clip-rule:evenodd;stroke-linejoin:round;stroke-miterlimit:2;">
    <g transform="matrix(1,0,0,1,-74.7166,-69.0274)">
        <g transform="matrix(0.482194,0,0,0.482194,38.6887,35.7428)">
            <path d="M571.43,378.33L448.29,397.244C444.474,397.806 441.618,401.037 441.528,404.892C441.435,408.748 444.13,412.107 447.915,412.853L571.145,437.673C574.36,438.31 577.688,437.4 580.133,435.216C582.579,433.033 583.86,429.83 583.59,426.564C582.422,414.236 582.368,401.826 583.426,389.486C583.676,386.302 582.461,383.181 580.122,381.005C577.786,378.834 574.582,377.849 571.426,378.33L571.43,378.33Z" style="fill:white;fill-rule:nonzero;"/>
            <path d="M797.2,746.18L816.114,623.04C816.618,619.884 815.649,616.669 813.481,614.321C811.317,611.97 808.192,610.743 805.005,610.993C792.673,612.044 780.271,611.981 767.95,610.806C764.661,610.517 761.426,611.798 759.223,614.263C757.024,616.727 756.114,620.083 756.77,623.321L781.59,746.531C782.332,750.316 785.688,753.016 789.543,752.93C793.399,752.844 796.629,749.992 797.199,746.18L797.2,746.18Z" style="fill:white;fill-rule:nonzero;"/>
            <path d="M797.41,202.76C800.648,202.951 803.797,201.631 805.93,199.19C808.066,196.744 808.953,193.451 808.332,190.268L785.223,75.428C784.481,71.643 781.125,68.943 777.27,69.029C773.414,69.115 770.184,71.967 769.613,75.779L751.801,191.749C751.235,194.98 752.223,198.292 754.469,200.683C756.716,203.074 759.954,204.273 763.216,203.914C774.564,202.593 786.001,202.21 797.411,202.765L797.41,202.76Z" style="fill:white;fill-rule:nonzero;"/>
            <path d="M1118.9,409.22L1004.17,386.111C1000.99,385.49 997.693,386.377 995.256,388.513C992.815,390.65 991.502,393.795 991.701,397.033C992.268,408.443 991.885,419.881 990.553,431.228C990.205,434.458 991.385,437.669 993.74,439.908C996.1,442.146 999.365,443.158 1002.58,442.642L1118.55,424.83C1122.36,424.26 1125.21,421.029 1125.3,417.174C1125.38,413.318 1122.68,409.963 1118.9,409.221L1118.9,409.22Z" style="fill:white;fill-rule:nonzero;"/>
            <path d="M287.53,821.16L94.78,1013.91C77.475,1031.21 70.718,1056.43 77.053,1080.07C83.385,1103.71 101.85,1122.17 125.487,1128.5C149.124,1134.84 174.342,1128.08 191.647,1110.78L384.377,918.027C389.904,912.519 393.193,905.156 393.604,897.363C394.014,889.57 391.522,881.898 386.604,875.84L640.694,617.63C650.878,607.431 654.842,592.575 651.104,578.657C647.361,564.739 636.479,553.876 622.557,550.157C608.631,546.438 593.784,550.43 583.6,560.63L329.61,818.93C323.559,814.047 315.915,811.571 308.149,811.985C300.383,812.395 293.044,815.66 287.54,821.157L287.53,821.16Z" style="fill:white;fill-rule:nonzero;"/>
            <path d="M530.3,154.92C527.015,152.877 522.734,153.502 520.175,156.404C517.612,159.307 517.527,163.635 519.964,166.638L649.454,329.508C626.638,370.051 622.821,418.582 639.013,462.198C655.204,505.811 689.771,540.089 733.513,555.921C777.259,571.753 825.755,567.534 866.113,544.386L1028.7,673.646C1031.71,676.084 1036.04,675.998 1038.94,673.435C1041.84,670.877 1042.46,666.596 1040.42,663.31L928.131,479.33C951.74,433.189 951.303,378.42 926.96,332.66L1052.35,153.06C1054.57,149.912 1054.2,145.619 1051.47,142.896C1048.75,140.17 1044.46,139.803 1041.31,142.021L861.731,267.481C815.528,242.903 760.171,242.7 713.791,266.942L530.3,154.92Z" style="fill:white;fill-rule:nonzero;"/>
        </g>
    </g>
</svg>
